X:11
T:XI - Zigzag Scale
C:Rodriguez Do Campo Method (2020)
M:3/4
L:1/8
Q:1/4=80
K:C
%%text Wave pattern: up 4, back 2. Net ascent of 2 per cycle.
%%text Both hands contrary motion. RH: 4-3-2-1, LH: 1-2-3-4. Apply permutations A-D.
CDEFED|EFGAGF|GABcBA|Bcdedc|defgfe|fgabag|
bagfga|gfedfe|edcBcd|cBAGAB|AGFEFG|FEDC C2|]
